svg/device/computer_camera_line.svg

<?xml version="1.0" encoding="UTF-8"?>
<svg width="24px" height="24px" viewBox="0 0 24 24" version="1.1" xmlns="http://www.w3.org/2000/svg" xmlns:xlink="http://www.w3.org/1999/xlink">
    <title>computer_camera_line</title>
    <g id="页面-1" stroke="none" stroke-width="1" fill="none" fill-rule="evenodd">
        <g id="Device" transform="translate(-48.000000, -192.000000)">
            <g id="computer_camera_line" transform="translate(48.000000, 192.000000)">
                 <path d="M24,0 L24,24 L0,24 L0,0 L24,0 Z M12.5934901,23.257841 L12.5819402,23.2595131 L12.5108777,23.2950439 L12.4918791,23.2987469 L12.4918791,23.2987469 L12.4767152,23.2950439 L12.4056548,23.2595131 C12.3958229,23.2563662 12.3870493,23.2590235 12.3821421,23.2649074 L12.3780323,23.275831 L12.360941,23.7031097 L12.3658947,23.7234994 L12.3769048,23.7357139 L12.4804777,23.8096931 L12.4953491,23.8136134 L12.4953491,23.8136134 L12.5071152,23.8096931 L12.6106902,23.7357139 L12.6232938,23.7196733 L12.6232938,23.7196733 L12.6266527,23.7031097 L12.609561,23.275831 C12.6075724,23.2657013 12.6010112,23.2592993 12.5934901,23.257841 L12.5934901,23.257841 Z M12.8583906,23.1452862 L12.8445485,23.1473072 L12.6598443,23.2396597 L12.6498822,23.2499052 L12.6498822,23.2499052 L12.6471943,23.2611114 L12.6650943,23.6906389 L12.6699349,23.7034178 L12.6699349,23.7034178 L12.678386,23.7104931 L12.8793402,23.8032389 C12.8914285,23.8068999 12.9022333,23.8029875 12.9078286,23.7952264 L12.9118235,23.7811639 L12.8776777,23.1665331 C12.8752882,23.1545897 12.8674102,23.1470016 12.8583906,23.1452862 L12.8583906,23.1452862 Z M12.1430473,23.1473072 C12.1332178,23.1423925 12.1221763,23.1452606 12.1156365,23.1525954 L12.1099173,23.1665331 L12.0757714,23.7811639 C12.0751323,23.7926639 12.0828099,23.8018602 12.0926481,23.8045676 L12.108256,23.8032389 L12.3092106,23.7104931 L12.3186497,23.7024347 L12.3186497,23.7024347 L12.3225043,23.6906389 L12.340401,23.2611114 L12.337245,23.2485176 L12.337245,23.2485176 L12.3277531,23.2396597 L12.1430473,23.1473072 Z" id="MingCute" fill-rule="nonzero"></path>
                <path d="M6.59285,16.7437 C6.90968,17.1961 6.79981,17.8196 6.34745,18.1365 C6.16798,18.2622 6.07316,18.3654 6.02841,18.4312 L6.00394,18.4728 L6.00394,18.4728 L6.03933808,18.5314144 C6.0683776,18.571096 6.117328,18.6262 6.19924,18.6961 C6.42871,18.8919 6.81958,19.1135 7.38977,19.3193 C8.52173,19.7279 10.1516,20 12,20 C13.8484,20 15.4783,19.7279 16.6102,19.3193 C17.1804,19.1135 17.5713,18.8919 17.8008,18.6961 C17.8827,18.6262 17.931624,18.571096 17.9606616,18.5314144 L17.9961,18.4728 L17.9961,18.4728 L17.9722,18.4322 L17.9722,18.4322 C17.9283,18.3672 17.8349,18.2649 17.6577,18.1401 C17.2062,17.8221 17.098,17.1982 17.4161,16.7467 C17.7341,16.2952 18.358,16.187 18.8095,16.505 C19.4072,16.926 20,17.579 20,18.4733 C20,19.2263 19.5742,19.8119 19.0991,20.2174 C18.6201,20.6262 17.9858,20.9491 17.2893,21.2005 C15.8877,21.7064 14.0176,22 12,22 C9.98244,22 8.11228,21.7064 6.71074,21.2005 C6.01418,20.9491 5.37992,20.6262 4.90095,20.2174 C4.42577,19.8119 4,19.2263 4,18.4733 C4,17.5746 4.59847,16.9197 5.20009,16.4983 C5.65245,16.1815 6.27601,16.2913 6.59285,16.7437 Z M12,2 C16.4183,2 20,5.58172 20,10 C20,14.4183 16.4183,18 12,18 C7.58172,18 4,14.4183 4,10 C4,5.58172 7.58172,2 12,2 Z M12,4 C8.68629,4 6,6.68629 6,10 C6,13.3137 8.68629,16 12,16 C15.3137,16 18,13.3137 18,10 C18,6.68629 15.3137,4 12,4 Z M12,6 C14.2091,6 16,7.79086 16,10 C16,12.2091 14.2091,14 12,14 C9.79086,14 8,12.2091 8,10 C8,7.79086 9.79086,6 12,6 Z M12,8 C10.8954,8 10,8.89543 10,10 C10,11.1046 10.8954,12 12,12 C13.1046,12 14,11.1046 14,10 C14,8.89543 13.1046,8 12,8 Z" id="形状" fill="#09244B"></path>
            </g>
        </g>
    </g>
</svg>

<svg xmlns="http://www.w3.org/2000/svg" width="24" height="24"><g fill="none" fill-rule="evenodd"><path d="M24 0v24H0V0h24ZM12.593 23.258l-.011.002-.071.035-.02.004-.014-.004-.071-.035c-.01-.004-.019-.001-.024.005l-.004.01-.017.428.005.02.01.013.104.074.015.004.012-.004.104-.074.012-.016.004-.017-.017-.427c-.002-.01-.009-.017-.017-.018Zm.265-.113-.013.002-.185.093-.01.01-.003.011.018.43.005.012.008.007.201.093c.012.004.023 0 .029-.008l.004-.014-.034-.614c-.003-.012-.01-.02-.02-.022Zm-.715.002a.023.023 0 0 0-.027.006l-.006.014-.034.614c0 .012.007.02.017.024l.015-.002.201-.093.01-.008.004-.011.017-.43-.003-.012-.01-.01-.184-.092Z"/><path fill="#09244B" d="M6.593 16.744a1 1 0 0 1-.246 1.393 1.26 1.26 0 0 0-.319.294l-.024.042.035.058c.03.04.078.095.16.165.23.196.62.417 1.19.623C8.523 19.728 10.153 20 12 20c1.848 0 3.478-.272 4.61-.68.57-.207.961-.428 1.19-.624.083-.07.132-.125.16-.165l.036-.058-.024-.04a1.243 1.243 0 0 0-.314-.293 1 1 0 1 1 1.151-1.635c.598.421 1.191 1.074 1.191 1.968 0 .753-.426 1.339-.9 1.744-.48.41-1.114.732-1.81.984-1.402.505-3.272.799-5.29.799-2.018 0-3.888-.294-5.29-.8-.696-.25-1.33-.574-1.809-.983-.475-.405-.901-.99-.901-1.744 0-.898.598-1.553 1.2-1.975a1 1 0 0 1 1.393.246ZM12 2a8 8 0 1 1 0 16 8 8 0 0 1 0-16Zm0 2a6 6 0 1 0 0 12 6 6 0 0 0 0-12Zm0 2a4 4 0 1 1 0 8 4 4 0 0 1 0-8Zm0 2a2 2 0 1 0 0 4 2 2 0 0 0 0-4Z"/></g></svg>
